data/jersey-10.svg

<svg width="44.25" height="15" viewBox="0 0 44.25 15" xmlns="http://www.w3.org/2000/svg"><path transform="translate(0 11.25) scale(.01 -.01)" d="m375 750h75v-75h-75zm-75 0h75v-75h-75zm0-75h75v-75h-75zm0-75h75v-75h-75zm0-75h75v-75h-75zm0-75h75v-75h-75zm75 0h75v-75h-75zm0 75h75v-75h-75zm0 75h75v-75h-75zm0 75h75v-75h-75zm0-300h75v-75h-75zm0-75h75v-75h-75zm0-75h75v-75h-75zm0-75h75v-75h-75zm-75 0h75v-75h-75zm0-75h75v-75h-75zm-75 0h75v-75h-75zm0 75h75v-75h-75zm75 75h75v-75h-75zm0 75h75v-75h-75zm0 75h75v-75h-75zm-150-300h75v-75h-75zm-75 0h75v-75h-75zm-75 75h75v-75h-75zm0 75h75v-75h-75zm75 0h75v-75h-75zm0-75h75v-75h-75zm75 0h75v-75h-75zm75 75h75v-75h-75z"/><path transform="translate(5.25 11.25) scale(.01 -.01)" d="m150 600h75v-75h-75zm-75 0h75v-75h-75zm0-75h75v-75h-75zm75 0h75v-75h-75zm75 75h75v-75h-75zm75 0h75v-75h-75zm75 0h75v-75h-75zm0-75h75v-75h-75zm-75 0h75v-75h-75zm150 0h75v-75h-75zm0-75h75v-75h-75zm0-300h75v-75h-75zm-75 0h75v-75h-75zm0 300h75v-75h-75zm-75-300h75v-75h-75zm75-75h75v-75h-75zm-75 0h75v-75h-75zm-75 0h75v-75h-75zm-75 0h75v-75h-75zm-75 0h75v-75h-75zm0 75h75v-75h-75zm75 0h75v-75h-75zm-75 75h75v-75h-75zm-75-75h75v-75h-75zm0 75h75v-75h-75zm0 75h75v-75h-75zm0 75h75v-75h-75zm0 75h75v-75h-75zm0 75h75v-75h-75zm75-75h75v-75h-75zm0-75h75v-75h-75zm0-75h75v-75h-75zm150-150h75v-75h-75zm0 375h75v-75h-75zm150-150h75v-75h-75zm75 0h75v-75h-75zm-300-75h75v-75h-75zm75 0h75v-75h-75zm75 0h75v-75h-75zm75 0h75v-75h-75zm75 0h75v-75h-75zm-150 75h75v-75h-75zm-75 0h75v-75h-75zm-75 0h75v-75h-75z"/><path transform="translate(11.25 11.25) scale(.01 -.01)" d="m0 525h75v-75h-75zm0 75h75v-75h-75zm75 0h75v-75h-75zm0-75h75v-75h-75zm0-75h75v-75h-75zm0-75h75v-75h-75zm0-75h75v-75h-75zm-75 0h75v-75h-75zm0 75h75v-75h-75zm0 75h75v-75h-75zm0-225h75v-75h-75zm75 0h75v-75h-75zm0-75h75v-75h-75zm0-75h75v-75h-75zm-75 0h75v-75h-75zm0 75h75v-75h-75zm150 375h75v-75h-75zm75 0h75v-75h-75zm75 0h75v-75h-75zm0 75h75v-75h-75zm-75 0h75v-75h-75zm-75-150h75v-75h-75zm225 75h75v-75h-75zm-75-75h75v-75h-75z"/><path transform="translate(16.5 11.25) scale(.01 -.01)" d="m0 525h75v-75h-75zm75-75h75v-75h-75zm-75 0h75v-75h-75zm0-75h75v-75h-75zm75 0h75v-75h-75zm0-75h75v-75h-75zm75 0h75v-75h-75zm75 0h75v-75h-75zm75 75h75v-75h-75zm-75 0h75v-75h-75zm-75 0h75v-75h-75zm150-75h75v-75h-75zm75 0h75v-75h-75zm0-75h75v-75h-75zm-75 0h75v-75h-75zm0-75h75v-75h-75zm75 0h75v-75h-75zm-75-75h75v-75h-75zm-75 75h75v-75h-75zm-75 0h75v-75h-75zm-75 0h75v-75h-75zm-75 0h75v-75h-75zm75-75h75v-75h-75zm75 0h75v-75h-75zm75 0h75v-75h-75zm150 450h75v-75h-75zm-75 0h75v-75h-75zm0 75h75v-75h-75zm-75 0h75v-75h-75zm-75 0h75v-75h-75zm-75 0h75v-75h-75zm0-75h75v-75h-75zm75 0h75v-75h-75zm75 0h75v-75h-75z"/><path transform="translate(21.75 11.25) scale(.01 -.01)" d="m150 600h75v-75h-75zm-75 0h75v-75h-75zm0-75h75v-75h-75zm75 0h75v-75h-75zm75 75h75v-75h-75zm75 0h75v-75h-75zm75 0h75v-75h-75zm0-75h75v-75h-75zm-75 0h75v-75h-75zm150 0h75v-75h-75zm0-75h75v-75h-75zm0-300h75v-75h-75zm-75 0h75v-75h-75zm0 300h75v-75h-75zm-75-300h75v-75h-75zm75-75h75v-75h-75zm-75 0h75v-75h-75zm-75 0h75v-75h-75zm-75 0h75v-75h-75zm-75 0h75v-75h-75zm0 75h75v-75h-75zm75 0h75v-75h-75zm-75 75h75v-75h-75zm-75-75h75v-75h-75zm0 75h75v-75h-75zm0 75h75v-75h-75zm0 75h75v-75h-75zm0 75h75v-75h-75zm0 75h75v-75h-75zm75-75h75v-75h-75zm0-75h75v-75h-75zm0-75h75v-75h-75zm150-150h75v-75h-75zm0 375h75v-75h-75zm150-150h75v-75h-75zm75 0h75v-75h-75zm-300-75h75v-75h-75zm75 0h75v-75h-75zm75 0h75v-75h-75zm75 0h75v-75h-75zm75 0h75v-75h-75zm-150 75h75v-75h-75zm-75 0h75v-75h-75zm-75 0h75v-75h-75z"/><path transform="translate(27.75 11.25) scale(.01 -.01)" d="m0 600h75v-75h-75zm75 0h75v-75h-75zm0-75h75v-75h-75zm0-75h75v-75h-75zm0-75h75v-75h-75zm-75 75h75v-75h-75zm0 75h75v-75h-75zm0-150h75v-75h-75zm0-75h75v-75h-75zm75 0h75v-75h-75zm0-75h75v-75h-75zm75 0h75v-75h-75zm0-75h75v-75h-75zm75 0h75v-75h-75zm75 0h75v-75h-75zm0 75h75v-75h-75zm0 75h75v-75h-75zm75 0h75v-75h-75zm0-75h75v-75h-75zm0 150h75v-75h-75zm-75 0h75v-75h-75zm0 225h75v-75h-75zm75 0h75v-75h-75zm0-75h75v-75h-75zm0-75h75v-75h-75zm-75 75h75v-75h-75zm0-75h75v-75h-75zm-75-375h75v-75h-75zm-75 0h75v-75h-75zm0-75h75v-75h-75zm-75 0h75v-75h-75zm0 75h75v-75h-75zm0-150h75v-75h-75zm-75 0h75v-75h-75zm0 75h75v-75h-75zm225 225h75v-75h-75zm-75 75h75v-75h-75z"/><path transform="translate(36 11.25) scale(.01 -.01)" d="m150 150h75v-75h-75zm0-75h75v-75h-75zm-75 0h75v-75h-75zm0 75h75v-75h-75zm0 75h75v-75h-75zm0 75h75v-75h-75zm0 75h75v-75h-75zm0 75h75v-75h-75zm0 75h75v-75h-75zm0 75h75v-75h-75zm75-75h75v-75h-75zm0-75h75v-75h-75zm0-75h75v-75h-75zm0-75h75v-75h-75zm0-75h75v-75h-75zm0 375h75v-75h-75zm0 75h75v-75h-75zm-75 75h75v-75h-75zm75 0h75v-75h-75zm-75-75h75v-75h-75zm-75 75h75v-75h-75zm0-75h75v-75h-75z"/><path transform="translate(39 11.25) scale(.01 -.01)" d="m150 750h75v-75h-75zm-75 0h75v-75h-75zm0-75h75v-75h-75zm75 0h75v-75h-75zm75 0h75v-75h-75zm0 75h75v-75h-75zm75 0h75v-75h-75zm75-75h75v-75h-75zm-75 0h75v-75h-75zm75-75h75v-75h-75zm0-450h75v-75h-75zm0 75h75v-75h-75zm0 75h75v-75h-75zm0 75h75v-75h-75zm0 75h75v-75h-75zm0 75h75v-75h-75zm-75-375h75v-75h-75zm0-75h75v-75h-75zm-75 0h75v-75h-75zm0 75h75v-75h-75zm-75-75h75v-75h-75zm-75 0h75v-75h-75zm0 75h75v-75h-75zm75 0h75v-75h-75zm-75 75h75v-75h-75zm-75-75h75v-75h-75zm0 75h75v-75h-75zm0 75h75v-75h-75zm0 75h75v-75h-75zm0 75h75v-75h-75zm0 75h75v-75h-75zm0 75h75v-75h-75zm75 0h75v-75h-75zm-75 75h75v-75h-75zm75-150h75v-75h-75zm0-75h75v-75h-75zm0-75h75v-75h-75zm0-75h75v-75h-75zm225 300h75v-75h-75zm0-75h75v-75h-75zm0-75h75v-75h-75zm0-75h75v-75h-75zm0-75h75v-75h-75zm0-75h75v-75h-75z"/></svg>

<?xml version="1.0" encoding="utf-8" ?>
<svg baseProfile="tiny" height="100%" version="1.2" width="100%" xmlns="http://www.w3.org/2000/svg" xmlns:ev="http://www.w3.org/2001/xml-events" xmlns:xlink="http://www.w3.org/1999/xlink"><defs /><g><path d="M375 750H450V675H375ZM300 750H375V675H300ZM300 675H375V600H300ZM300 600H375V525H300ZM300 525H375V450H300ZM300 450H375V375H300ZM375 450H450V375H375ZM375 525H450V450H375ZM375 600H450V525H375ZM375 675H450V600H375ZM375 375H450V300H375ZM375 300H450V225H375ZM375 225H450V150H375ZM375 150H450V75H375ZM300 150H375V75H300ZM300 75H375V0H300ZM225 75H300V0H225ZM225 150H300V75H225ZM300 225H375V150H300ZM300 300H375V225H300ZM300 375H375V300H300ZM150 75H225V0H150ZM75 75H150V0H75ZM0 150H75V75H0ZM0 225H75V150H0ZM75 225H150V150H75ZM75 150H150V75H75ZM150 150H225V75H150ZM225 225H300V150H225Z" transform="translate(0.0, 72) scale(0.05142857142857143, -0.05142857142857143)" /><path d="M150 600H225V525H150ZM75 600H150V525H75ZM75 525H150V450H75ZM150 525H225V450H150ZM225 600H300V525H225ZM300 600H375V525H300ZM375 600H450V525H375ZM375 525H450V450H375ZM300 525H375V450H300ZM450 525H525V450H450ZM450 450H525V375H450ZM450 150H525V75H450ZM375 150H450V75H375ZM375 450H450V375H375ZM300 150H375V75H300ZM375 75H450V0H375ZM300 75H375V0H300ZM225 75H300V0H225ZM150 75H225V0H150ZM75 75H150V0H75ZM75 150H150V75H75ZM150 150H225V75H150ZM75 225H150V150H75ZM0 150H75V75H0ZM0 225H75V150H0ZM0 300H75V225H0ZM0 375H75V300H0ZM0 450H75V375H0ZM0 525H75V450H0ZM75 450H150V375H75ZM75 375H150V300H75ZM75 300H150V225H75ZM225 150H300V75H225ZM225 525H300V450H225ZM375 375H450V300H375ZM450 375H525V300H450ZM150 300H225V225H150ZM225 300H300V225H225ZM300 300H375V225H300ZM375 300H450V225H375ZM450 300H525V225H450ZM300 375H375V300H300ZM225 375H300V300H225ZM150 375H225V300H150Z" transform="translate(27.0, 72) scale(0.05142857142857143, -0.05142857142857143)" /><path d="M0 525H75V450H0ZM0 600H75V525H0ZM75 600H150V525H75ZM75 525H150V450H75ZM75 450H150V375H75ZM75 375H150V300H75ZM75 300H150V225H75ZM0 300H75V225H0ZM0 375H75V300H0ZM0 450H75V375H0ZM0 225H75V150H0ZM75 225H150V150H75ZM75 150H150V75H75ZM75 75H150V0H75ZM0 75H75V0H0ZM0 150H75V75H0ZM150 525H225V450H150ZM225 525H300V450H225ZM300 525H375V450H300ZM300 600H375V525H300ZM225 600H300V525H225ZM150 450H225V375H150ZM375 525H450V450H375ZM300 450H375V375H300Z" transform="translate(57.85714285714286, 72) scale(0.05142857142857143, -0.05142857142857143)" /><path d="M0 525H75V450H0ZM75 450H150V375H75ZM0 450H75V375H0ZM0 375H75V300H0ZM75 375H150V300H75ZM75 300H150V225H75ZM150 300H225V225H150ZM225 300H300V225H225ZM300 375H375V300H300ZM225 375H300V300H225ZM150 375H225V300H150ZM300 300H375V225H300ZM375 300H450V225H375ZM375 225H450V150H375ZM300 225H375V150H300ZM300 150H375V75H300ZM375 150H450V75H375ZM300 75H375V0H300ZM225 150H300V75H225ZM150 150H225V75H150ZM75 150H150V75H75ZM0 150H75V75H0ZM75 75H150V0H75ZM150 75H225V0H150ZM225 75H300V0H225ZM375 525H450V450H375ZM300 525H375V450H300ZM300 600H375V525H300ZM225 600H300V525H225ZM150 600H225V525H150ZM75 600H150V525H75ZM75 525H150V450H75ZM150 525H225V450H150ZM225 525H300V450H225Z" transform="translate(84.85714285714286, 72) scale(0.05142857142857143, -0.05142857142857143)" /><path d="M150 600H225V525H150ZM75 600H150V525H75ZM75 525H150V450H75ZM150 525H225V450H150ZM225 600H300V525H225ZM300 600H375V525H300ZM375 600H450V525H375ZM375 525H450V450H375ZM300 525H375V450H300ZM450 525H525V450H450ZM450 450H525V375H450ZM450 150H525V75H450ZM375 150H450V75H375ZM375 450H450V375H375ZM300 150H375V75H300ZM375 75H450V0H375ZM300 75H375V0H300ZM225 75H300V0H225ZM150 75H225V0H150ZM75 75H150V0H75ZM75 150H150V75H75ZM150 150H225V75H150ZM75 225H150V150H75ZM0 150H75V75H0ZM0 225H75V150H0ZM0 300H75V225H0ZM0 375H75V300H0ZM0 450H75V375H0ZM0 525H75V450H0ZM75 450H150V375H75ZM75 375H150V300H75ZM75 300H150V225H75ZM225 150H300V75H225ZM225 525H300V450H225ZM375 375H450V300H375ZM450 375H525V300H450ZM150 300H225V225H150ZM225 300H300V225H225ZM300 300H375V225H300ZM375 300H450V225H375ZM450 300H525V225H450ZM300 375H375V300H300ZM225 375H300V300H225ZM150 375H225V300H150Z" transform="translate(111.85714285714286, 72) scale(0.05142857142857143, -0.05142857142857143)" /><path d="M0 600H75V525H0ZM75 600H150V525H75ZM75 525H150V450H75ZM75 450H150V375H75ZM75 375H150V300H75ZM0 450H75V375H0ZM0 525H75V450H0ZM0 375H75V300H0ZM0 300H75V225H0ZM75 300H150V225H75ZM75 225H150V150H75ZM150 225H225V150H150ZM150 150H225V75H150ZM225 150H300V75H225ZM300 150H375V75H300ZM300 225H375V150H300ZM300 300H375V225H300ZM375 300H450V225H375ZM375 225H450V150H375ZM375 375H450V300H375ZM300 375H375V300H300ZM300 600H375V525H300ZM375 600H450V525H375ZM375 525H450V450H375ZM375 450H450V375H375ZM300 525H375V450H300ZM300 450H375V375H300ZM225 75H300V0H225ZM150 75H225V0H150ZM150 0H225V-75H150ZM75 0H150V-75H75ZM75 75H150V0H75ZM75 -75H150V-150H75ZM0 -75H75V-150H0ZM0 0H75V-75H0ZM225 225H300V150H225ZM150 300H225V225H150Z" transform="translate(142.71428571428572, 72) scale(0.05142857142857143, -0.05142857142857143)" /><path d="M150 150H225V75H150ZM150 75H225V0H150ZM75 75H150V0H75ZM75 150H150V75H75ZM75 225H150V150H75ZM75 300H150V225H75ZM75 375H150V300H75ZM75 450H150V375H75ZM75 525H150V450H75ZM75 600H150V525H75ZM150 525H225V450H150ZM150 450H225V375H150ZM150 375H225V300H150ZM150 300H225V225H150ZM150 225H225V150H150ZM150 600H225V525H150ZM150 675H225V600H150ZM75 750H150V675H75ZM150 750H225V675H150ZM75 675H150V600H75ZM0 750H75V675H0ZM0 675H75V600H0Z" transform="translate(185.14285714285714, 72) scale(0.05142857142857143, -0.05142857142857143)" /><path d="M150 750H225V675H150ZM75 750H150V675H75ZM75 675H150V600H75ZM150 675H225V600H150ZM225 675H300V600H225ZM225 750H300V675H225ZM300 750H375V675H300ZM375 675H450V600H375ZM300 675H375V600H300ZM375 600H450V525H375ZM375 150H450V75H375ZM375 225H450V150H375ZM375 300H450V225H375ZM375 375H450V300H375ZM375 450H450V375H375ZM375 525H450V450H375ZM300 150H375V75H300ZM300 75H375V0H300ZM225 75H300V0H225ZM225 150H300V75H225ZM150 75H225V0H150ZM75 75H150V0H75ZM75 150H150V75H75ZM150 150H225V75H150ZM75 225H150V150H75ZM0 150H75V75H0ZM0 225H75V150H0ZM0 300H75V225H0ZM0 375H75V300H0ZM0 450H75V375H0ZM0 525H75V450H0ZM0 600H75V525H0ZM75 600H150V525H75ZM0 675H75V600H0ZM75 525H150V450H75ZM75 450H150V375H75ZM75 375H150V300H75ZM75 300H150V225H75ZM300 600H375V525H300ZM300 525H375V450H300ZM300 450H375V375H300ZM300 375H375V300H300ZM300 300H375V225H300ZM300 225H375V150H300Z" transform="translate(200.57142857142856, 72) scale(0.05142857142857143, -0.05142857142857143)" /></g></svg>
